X:1
T:What is the cause that thou, O Lord (Ps 10)
T:Gearge Kirby (ca 1555-1634)
T:Source :The Whole Book of Psalms---London---Musical Antiquarian Society---1844. First publication : London---Th.Est(e)---1592. Editor : André Vierendeels ( 07/09/16).
T:What is the cause that thou, O Lord (Ps 10)
T:©
T:©
T:©
C:Gearge Kirby
C:(ca 1555-1634)
Z:©
%%score [ 1 2 3 4 ]
L:1/8
Q:1/4=117
M:4/4
K:F
V:1 treble nm="Soprano" snm="S"
V:2 treble nm="Alto" snm="A"
V:3 treble-8 nm="Tenor" snm="T"
V:4 bass nm="Bass" snm="B"
V:1
 A8 | A4 B4 | B4 c4 | d8- | d4 A4 | A8 || d8 | c4 B4 | c4 c4 | B8 || c8 | d4 A4 | B4 c4 | A8- | %14
w: What|is the|cause that|thou,|_ O|Lord,|art|now so|far from|thine,|and|kee- pest|close thy|coun-|
 A4 A4 |[M:2/4] A4 || B4 |[M:4/4] c8 | c4 B4 | A8 | !fermata!=B8 |] %21
w: * te-|nance,|from|us|this trou-|blous|time?|
V:2
 D8 | F4 D4 | G4 G4 | ^F8- | F4 ^F4 | ^F8 ||"^-natural" F8 | F4 D4 | _E4 C4 | D8 || F8 | F6 F2 | %12
w: What|is the|cause that|thou,|_ O|lord,|art|now so|far from|thine,|and|kee- pest|
 G4 _E4 | D8- | D4 D4 |[M:2/4] D4 || G4 |[M:4/4] F4 _E4- | E4 D4 | D8 | !fermata!D8 |] %21
w: close the|coun-|* te-|nance,,|from|us this|_ trou-|blous|time?|
V:3
 F8 | F4 F4 | G4 G4 | A8- | A4 A4 | A8 || F8 | F4 F4 | G4 A4 | B8 || A8 | A4 A4 | G4 G4 | ^F8- | %14
w: What|is the|cause that|thou,|_ O|Lord|art|now so|far from|thine,|and|kee- pest|close the|coun-|
 F4 ^F4 |[M:2/4] ^F4 || G4 |[M:4/4] A8 | G4 G4 | ^F8 | !fermata!G8 |] %21
w: * te-|nance,|from|us|this trou-|blous|time?|
V:4
 D,8 | D,4 B,,4 | _E,4 E,4 | D,8- | D,4 D,4 | D,8 || D,8 | A,,4 B,,4 | _E,4 F,4 | B,,8 || F,8 | %11
w: What|is the|cause that|thou,|_ O|Lord,|art|now so|far from|thine,|and|
 D,4 F,4 | _E,4 C,4 | D,8- | D,4 D,4 |[M:2/4] D,4 || B,,4 |[M:4/4] A,,8 | C,4 G,,4 | D,8 | %20
w: kee- pest|close the|coun-|* te-|nance,|from|us|this trou-|blous|
 !fermata!G,,8 |] %21
w: time?|

